images/signal-logo-and-wordmark.svg

<svg width="560" height="160" viewBox="0 0 560 160" fill="none" xmlns="http://www.w3.org/2000/svg">
<path d="M80 0C84.1505 0 88.2271 0.31607 92.2072 0.925452L91.0628 8.3387C87.4559 7.78644 83.7614 7.5 80 7.5C76.2388 7.5 72.5445 7.78641 68.9377 8.33862L67.7933 0.925375C71.7732 0.316043 75.8497 0 80 0Z" fill="#3B45FD"/>
<path d="M98.9849 2.26619L97.2051 9.55374C104.515 11.3327 111.39 14.2198 117.644 18.0268L121.539 11.6158C114.638 7.41489 107.051 4.22922 98.9849 2.26619Z" fill="#3B45FD"/>
<path d="M127.279 15.4591L122.847 21.5098C128.824 25.8959 134.104 31.1762 138.49 37.1535L144.541 32.7211C139.701 26.1254 133.875 20.2989 127.279 15.4591Z" fill="#3B45FD"/>
<path d="M148.384 38.4618L141.973 42.356C145.78 48.6101 148.667 55.4859 150.446 62.7955L157.734 61.0157C155.771 52.95 152.585 45.3629 148.384 38.4618Z" fill="#3B45FD"/>
<path d="M159.075 67.7934L151.661 68.9378C152.214 72.5445 152.5 76.2388 152.5 80C152.5 83.7614 152.214 87.4559 151.661 91.0628L159.075 92.2072C159.684 88.2271 160 84.1505 160 80C160 75.8497 159.684 71.7733 159.075 67.7934Z" fill="#3B45FD"/>
<path d="M141.973 117.645C145.78 111.39 148.667 104.515 150.446 97.205L157.734 98.9848C155.771 107.051 152.585 114.638 148.384 121.539L141.973 117.645Z" fill="#3B45FD"/>
<path d="M138.49 122.847L144.541 127.279C139.701 133.875 133.875 139.701 127.279 144.541L122.846 138.49C128.824 134.104 134.104 128.824 138.49 122.847Z" fill="#3B45FD"/>
<path d="M117.644 141.973L121.538 148.384C114.637 152.585 107.05 155.771 98.9843 157.734L97.2045 150.446C104.514 148.667 111.39 145.78 117.644 141.973Z" fill="#3B45FD"/>
<path d="M91.0622 151.661L92.2067 159.075C88.2268 159.684 84.1503 160 80 160C75.8495 160 71.7728 159.684 67.7927 159.075L68.9369 151.662C72.5423 152.214 76.2366 152.5 80 152.5C83.7612 152.5 87.4555 152.214 91.0622 151.661Z" fill="#3B45FD"/>
<path d="M62.7945 150.448L61.0151 157.734C54.9562 156.259 49.1674 154.095 43.7366 151.328L36.1439 153.1L34.4397 145.796L44.7001 143.402L47.1409 144.645C52.0596 147.151 57.3032 149.112 62.7945 150.448Z" fill="#3B45FD"/>
<path d="M28.1097 147.273L29.8139 154.577L16.7994 157.613C8.13861 159.634 0.365682 151.861 2.38654 143.201L5.42327 130.186L12.7271 131.89L9.69035 144.905C8.93253 148.153 11.8474 151.067 15.0952 150.31L28.1097 147.273Z" fill="#3B45FD"/>
<path d="M14.2041 125.56L6.90027 123.856L8.6719 116.263C5.90526 110.832 3.74067 105.043 2.26605 98.9843L9.55191 97.2049C10.8879 102.696 12.849 107.94 15.3547 112.859L16.5982 115.3L14.2041 125.56Z" fill="#3B45FD"/>
<path d="M8.33759 91.0624L0.925362 92.2066C0.316038 88.2267 0 84.1503 0 80C0 75.8495 0.316067 71.7729 0.925446 67.7928L8.33869 68.9372C7.78644 72.5442 7.5 76.2386 7.5 80C7.5 83.7631 7.78613 87.4572 8.33759 91.0624Z" fill="#3B45FD"/>
<path d="M9.55373 62.795L2.26618 61.0152C4.2292 52.9495 7.41488 45.3624 11.6158 38.4613L18.0268 42.3555C14.2198 48.6096 11.3327 55.4854 9.55373 62.795Z" fill="#3B45FD"/>
<path d="M21.5098 37.1531L15.4591 32.7207C20.2989 26.125 26.1254 20.2986 32.7211 15.4588L37.1535 21.5095C31.1762 25.8956 25.8959 31.1758 21.5098 37.1531Z" fill="#3B45FD"/>
<path d="M42.356 18.0266L38.4617 11.6155C45.3628 7.41468 52.9499 4.22905 61.0157 2.26606L62.7955 9.55361C55.4859 11.3326 48.6101 14.2195 42.356 18.0266Z" fill="#3B45FD"/>
<path d="M145 80C145 115.899 115.899 145 80 145C68.6134 145 57.9107 142.072 48.6035 136.928C47.7074 136.433 46.6618 136.27 45.6646 136.502L16.7512 143.249L23.4977 114.335C23.7303 113.338 23.5669 112.292 23.0717 111.396C17.9278 102.089 15 91.3865 15 80C15 44.1015 44.1015 15 80 15C115.899 15 145 44.1015 145 80Z" fill="#3B45FD"/>
<path d="M283.473 43.2773C278.004 43.2773 273.493 38.7656 273.493 33.2969C273.493 27.8281 278.004 23.3164 283.473 23.3164C288.942 23.3164 293.454 27.8281 293.454 33.2969C293.454 38.7656 288.942 43.2773 283.473 43.2773Z" fill="#3B45FD"/>
<path d="M275.202 129V52.5742H291.745V129H275.202Z" fill="#3B45FD"/>
<path d="M558.078 129V24.5469H541.535V129H558.078Z" fill="#3B45FD"/>
<path fill-rule="evenodd" clip-rule="evenodd" d="M458.716 90.7871C458.716 116.148 472.388 130.23 490.503 130.23C500.074 130.23 507.73 125.24 512.515 116.695V129H529.263V52.5742H512.515V64.8105C507.73 56.2656 500.279 51.3438 490.982 51.3438C472.388 51.3438 458.716 65.4258 458.716 90.7871ZM513.472 90.7871C513.472 106.168 506.978 116.695 494.81 116.695C482.505 116.695 476.011 105.553 476.011 90.7871C476.011 76.0215 482.505 65.3574 494.81 65.3574C506.978 65.3574 513.472 75.4062 513.472 90.7871Z" fill="#3B45FD"/>
<path d="M400.849 84.0879V129H383.964V52.5742H399.96L400.165 67.5449C404.814 56.8809 412.675 51.6172 423.749 51.6172C439.472 51.6172 449.863 61.8711 449.863 80.3965V129H432.978V82.8574C432.978 72.3301 427.167 66.041 417.665 66.041C407.89 66.041 400.849 72.6719 400.849 84.0879Z" fill="#3B45FD"/>
<path fill-rule="evenodd" clip-rule="evenodd" d="M336.35 159.215C355.833 159.215 371.692 150.191 371.692 127.838V52.5742H355.149V65.8359C350.364 56.7441 342.503 51.3438 332.385 51.3438C314.27 51.3438 300.598 65.084 300.598 89.625C300.598 114.166 314.27 127.906 332.385 127.906C342.366 127.906 350.159 122.711 354.944 113.756V128.727C354.944 139.732 348.382 146.158 336.35 146.158C327.874 146.158 321.516 142.877 319.397 136.246H303.333C305.589 150.533 317.483 159.215 336.35 159.215ZM355.354 89.625C355.354 104.254 348.86 114.371 336.692 114.371C324.387 114.371 317.893 103.639 317.893 89.625C317.893 75.6113 324.387 65.3574 336.692 65.3574C348.86 65.3574 355.354 74.9961 355.354 89.625Z" fill="#3B45FD"/>
<path d="M188.828 99.7422C189.717 119.225 204.414 130.641 227.793 130.641C251.924 130.641 265.938 118.268 265.938 100.562C265.938 82.584 250.42 75.0645 236.27 71.5781L226.562 69.0488C218.564 66.998 208.789 63.5117 208.789 54.4883C208.789 46.3535 216.172 40.4062 228.066 40.4062C239.277 40.4062 247.002 45.6016 248.027 54.5566H264.57C264.092 37.877 249.736 25.7773 228.34 25.7773C207.354 25.7773 191.631 37.6719 191.631 55.4453C191.631 69.6641 201.611 78.209 218.428 82.6523L230.186 85.7969C241.123 88.668 248.984 92.0859 248.984 100.426C248.984 109.723 240.029 115.875 227.656 115.875C216.035 115.875 206.602 110.748 205.781 99.7422H188.828Z" fill="#3B45FD"/>
</svg>

<svg xmlns="http://www.w3.org/2000/svg" width="560" height="160" fill="none"><path fill="#3B45FD" d="M80 0c4.15 0 8.227.316 12.207.925L91.063 8.34A73 73 0 0 0 80 7.5a73 73 0 0 0-11.062.839L67.793.925A80.6 80.6 0 0 1 80 0m18.985 2.266-1.78 7.288a72 72 0 0 1 20.439 8.473l3.895-6.411a79.5 79.5 0 0 0-22.554-9.35m28.294 13.194-4.432 6.05a73 73 0 0 1 15.643 15.644l6.051-4.433a80.5 80.5 0 0 0-17.262-17.262m21.105 23.003-6.411 3.894a72 72 0 0 1 8.473 20.44l7.288-1.78a79.5 79.5 0 0 0-9.35-22.554m10.691 29.331-7.414 1.145c.553 3.606.839 7.3.839 11.062s-.286 7.456-.839 11.063l7.414 1.144A81 81 0 0 0 160 80c0-4.15-.316-8.227-.925-12.207m-17.102 49.852a72 72 0 0 0 8.473-20.44l7.288 1.78a79.5 79.5 0 0 1-9.35 22.554zm-3.483 5.202 6.051 4.432a80.5 80.5 0 0 1-17.262 17.262l-4.433-6.051a72.9 72.9 0 0 0 15.644-15.643m-20.846 19.126 3.894 6.411a79.5 79.5 0 0 1-22.554 9.35l-1.78-7.288a72 72 0 0 0 20.44-8.473m-26.582 9.688 1.145 7.414c-3.98.609-8.057.925-12.207.925s-8.227-.316-12.207-.925l1.144-7.413c3.605.552 7.3.838 11.063.838a73 73 0 0 0 11.062-.839m-28.267-1.213-1.78 7.286a79.4 79.4 0 0 1-17.278-6.406l-7.593 1.772-1.704-7.304 10.26-2.394 2.44 1.243a72 72 0 0 0 15.654 5.803m-34.684-3.175 1.704 7.304-13.015 3.036c-8.66 2.021-16.433-5.752-14.412-14.412l3.036-13.015 7.304 1.704-3.037 13.015c-.757 3.248 2.157 6.162 5.405 5.405zM14.204 125.56 6.9 123.856l1.772-7.593a79.4 79.4 0 0 1-6.406-17.279l7.286-1.78a72 72 0 0 0 5.803 15.655l1.243 2.441zM8.338 91.062.925 92.207A80.6 80.6 0 0 1 0 80c0-4.15.316-8.227.925-12.207l7.414 1.144A73 73 0 0 0 7.5 80c0 3.763.286 7.457.838 11.062m1.216-28.267-7.288-1.78a79.5 79.5 0 0 1 9.35-22.554l6.41 3.895a72 72 0 0 0-8.472 20.439M21.51 37.153l-6.05-4.432a80.5 80.5 0 0 1 17.26-17.262l4.433 6.05A73 73 0 0 0 21.51 37.154m20.846-19.127-3.894-6.411a79.5 79.5 0 0 1 22.554-9.35l1.78 7.288a72 72 0 0 0-20.44 8.473"/><path fill="#3B45FD" d="M145 80c0 35.899-29.101 65-65 65-11.387 0-22.09-2.928-31.397-8.072a4.14 4.14 0 0 0-2.938-.426l-28.914 6.747 6.747-28.914a4.14 4.14 0 0 0-.426-2.939C17.928 102.089 15 91.386 15 80c0-35.898 29.102-65 65-65 35.899 0 65 29.102 65 65m138.473-36.723c-5.469 0-9.98-4.511-9.98-9.98s4.511-9.98 9.98-9.98 9.981 4.511 9.981 9.98-4.512 9.98-9.981 9.98M275.202 129V52.574h16.543V129zm282.876 0V24.547h-16.543V129z"/><path fill="#3B45FD" fill-rule="evenodd" d="M458.716 90.787c0 25.361 13.672 39.443 31.787 39.443 9.571 0 17.227-4.99 22.012-13.535V129h16.748V52.574h-16.748v12.237c-4.785-8.545-12.236-13.467-21.533-13.467-18.594 0-32.266 14.082-32.266 39.443m54.756 0c0 15.381-6.494 25.908-18.662 25.908-12.305 0-18.799-11.142-18.799-25.908s6.494-25.43 18.799-25.43c12.168 0 18.662 10.05 18.662 25.43" clip-rule="evenodd"/><path fill="#3B45FD" d="M400.849 84.088V129h-16.885V52.574h15.996l.205 14.97c4.649-10.663 12.51-15.927 23.584-15.927 15.723 0 26.114 10.254 26.114 28.78V129h-16.885V82.857c0-10.527-5.811-16.816-15.313-16.816-9.775 0-16.816 6.63-16.816 18.047"/><path fill="#3B45FD" fill-rule="evenodd" d="M336.35 159.215c19.483 0 35.342-9.024 35.342-31.377V52.574h-16.543v13.262c-4.785-9.092-12.646-14.492-22.764-14.492-18.115 0-31.787 13.74-31.787 38.281s13.672 38.281 31.787 38.281c9.981 0 17.774-5.195 22.559-14.15v14.971c0 11.005-6.562 17.431-18.594 17.431-8.476 0-14.834-3.281-16.953-9.912h-16.064c2.256 14.287 14.15 22.969 33.017 22.969m19.004-69.59c0 14.629-6.494 24.746-18.662 24.746-12.305 0-18.799-10.732-18.799-24.746s6.494-24.268 18.799-24.268c12.168 0 18.662 9.64 18.662 24.268" clip-rule="evenodd"/><path fill="#3B45FD" d="M188.828 99.742c.889 19.483 15.586 30.899 38.965 30.899 24.131 0 38.145-12.373 38.145-30.079 0-17.978-15.518-25.498-29.668-28.984l-9.708-2.53c-7.998-2.05-17.773-5.536-17.773-14.56 0-8.135 7.383-14.082 19.277-14.082 11.211 0 18.936 5.196 19.961 14.15h16.543c-.478-16.679-14.834-28.779-36.23-28.779-20.986 0-36.709 11.895-36.709 29.668 0 14.22 9.98 22.764 26.797 27.207l11.758 3.145c10.937 2.871 18.798 6.289 18.798 14.629 0 9.297-8.955 15.449-21.328 15.449-11.621 0-21.054-5.127-21.875-16.133z"/></svg>
